X: 156
Q: "Allegro."
M: 2/4
L: 1/16
K: C
(GE) | C2 C2 (CD) (E F) | G2 G2 G2 E2 | A2 A2 A3 {G}G |
"^cresc."A3 G A B c d | !f!e6 c G | c6 G E | G6  D E |
P: Chorus.
(3(GA) B | c2 e2 d3 c | A2 c4 A2 | d6 A2 | d6 (3(GAB) | c2 e2 d3 c |


